<?xml version="1.0" encoding="UTF-8"?>
<map version="1.10" tiledversion="1.10.2" orientation="orthogonal" renderorder="right-down" width="15" height="15" tilewidth="16" tileheight="16" infinite="0" nextlayerid="5" nextobjectid="1">
 <tileset firstgid="1" source="../../ditu/新建文件夹/Village_Tileset.tsx"/>
 <layer id="1" name="图块层 1" width="15" height="15">
  <data encoding="csv">
39,39,10,8,97,97,97,97,97,97,97,97,97,99,97,
39,39,39,10,8,11,12,12,12,12,12,13,2,3,97,
41,39,39,11,12,14,44,44,44,44,44,45,34,5,3,
70,71,41,43,44,44,44,44,44,44,44,15,13,34,35,
97,97,11,14,44,44,44,44,44,44,44,44,45,34,35,
97,97,43,44,44,44,44,44,44,44,44,44,45,66,67,
97,97,43,44,44,44,44,44,44,44,44,44,45,97,97,
97,1,43,44,44,44,44,44,44,44,44,44,45,97,99,
1,4,75,76,46,44,44,44,44,44,44,44,45,97,97,
65,36,34,34,43,44,44,44,44,44,44,47,77,97,97,
97,65,36,37,75,46,44,44,44,44,47,77,6,7,8,
6,8,65,67,98,43,44,44,44,44,45,97,38,39,10,
38,10,8,97,97,75,76,76,46,44,45,97,38,39,39,
70,41,40,97,97,97,97,11,14,44,15,13,70,71,41,
99,70,72,97,97,97,97,75,46,44,44,45,97,97,70
</data>
 </layer>
 <layer id="4" name="图块层 3" width="15" height="15">
  <data encoding="csv">
0,0,0,0,0,0,0,0,0,0,0,0,0,0,0,
0,548,549,690,691,0,0,0,0,688,689,0,580,581,581,
0,580,581,722,723,0,0,0,0,720,721,0,0,0,0,
0,0,461,462,0,108,109,0,0,107,0,0,0,0,0,
0,417,0,0,0,140,141,0,0,0,0,104,0,0,0,
0,0,0,135,0,0,138,139,0,112,0,113,0,0,0,
0,0,0,0,0,0,0,0,0,0,0,0,0,0,0,
0,97,0,0,106,105,0,0,144,0,0,135,0,0,0,
0,3,0,0,0,0,0,0,0,112,145,0,0,0,0,
2147484197,2147484196,3,3,0,136,0,0,0,0,146,580,548,549,0,
2147484229,2147484228,0,35,0,0,0,107,0,114,0,0,580,581,0,
0,0,0,0,0,0,0,0,0,0,0,0,0,0,0,
0,0,0,0,3758096933,0,0,0,0,112,0,0,0,0,0,
0,0,581,0,0,0,0,0,0,114,0,0,0,0,0,
0,0,0,0,0,0,0,0,0,138,139,0,2684355142,2684355110,0
</data>
 </layer>
 <layer id="2" name="图块层 2" width="15" height="15">
  <data encoding="csv">
0,0,0,0,0,0,0,0,0,0,0,0,0,0,0,
0,0,202,206,205,206,205,206,205,206,205,204,0,0,0,
0,202,268,0,0,0,0,0,0,0,0,266,204,0,0,
0,265,0,0,0,0,0,0,0,0,0,0,266,204,0,
0,0,0,0,0,0,0,0,0,0,0,0,0,237,0,
0,201,0,0,0,0,0,0,0,0,0,0,0,269,0,
0,237,0,0,0,0,0,0,0,0,0,0,0,237,0,
0,269,0,0,0,0,0,0,0,0,0,0,0,269,0,
0,237,0,0,0,0,0,0,0,0,0,0,0,237,0,
0,269,494,0,0,0,0,0,0,0,0,0,0,269,0,
0,233,0,590,0,0,0,0,0,0,0,2147484211,2147484210,237,0,
0,237,594,0,0,0,0,0,0,0,0,2147484243,493,269,0,
0,266,204,0,0,0,0,0,0,0,298,205,206,268,0,
0,0,266,206,300,0,0,0,0,0,0,0,0,0,0,
0,0,0,0,0,0,0,0,0,0,0,0,0,0,0
</data>
 </layer>
</map>
